build/images/SVG/1/six.svg

<!-- Generated by IcoMoon.io -->
<svg version="1.1" xmlns="http://www.w3.org/2000/svg" width="32" height="32" viewBox="0 0 32 32">
<title>six</title>
<path fill="#e3e5e4" d="M16.487 13.605c-1.282 0-2.244 0.606-2.796 1.336h-0.053c0.267-1.906 1.567-3.705 4.025-4.114 0.445-0.071 0.855-0.089 1.175-0.071v-1.282c-0.285 0-0.677 0.018-1.14 0.089-1.461 0.178-2.742 0.766-3.704 1.71-1.14 1.14-1.959 2.939-1.959 5.219 0 3.010 1.621 4.933 4.096 4.933 2.404 0 3.847-1.959 3.847-4.078 0-2.262-1.443-3.74-3.491-3.74zM16.13 20.212c-1.639 0-2.511-1.407-2.547-3.313 0-0.285 0.071-0.517 0.178-0.695 0.428-0.837 1.3-1.425 2.244-1.425 1.443 0 2.387 0.998 2.387 2.654s-0.909 2.778-2.262 2.778z"></path>
<path fill="#e3e5e4" d="M15.996 0c-8.82 0-15.996 7.177-15.996 15.999s7.176 16.001 15.996 16.001c8.821 0 15.998-7.178 15.998-16.001s-7.177-15.999-15.999-15.999zM15.996 31.028c-8.285 0-15.024-6.742-15.024-15.029s6.74-15.027 15.024-15.027c8.285 0 15.026 6.741 15.026 15.027s-6.741 15.029-15.026 15.029z"></path>
</svg>

<svg xmlns="http://www.w3.org/2000/svg" width="32" height="32" viewBox="0 0 32 32"><title>six</title><path fill="#e3e5e4" d="M16.487 13.605c-1.282 0-2.244.606-2.796 1.336h-.053c.267-1.906 1.567-3.705 4.025-4.114a5.658 5.658 0 0 1 1.175-.071V9.474c-.285 0-.677.018-1.14.089-1.461.178-2.742.766-3.704 1.71-1.14 1.14-1.959 2.939-1.959 5.219 0 3.01 1.621 4.933 4.096 4.933 2.404 0 3.847-1.959 3.847-4.078 0-2.262-1.443-3.74-3.491-3.74zm-.357 6.607c-1.639 0-2.511-1.407-2.547-3.313 0-.285.071-.517.178-.695.428-.837 1.3-1.425 2.244-1.425 1.443 0 2.387.998 2.387 2.654s-.909 2.778-2.262 2.778z"/><path fill="#e3e5e4" d="M15.996 0C7.176 0 0 7.177 0 15.999S7.176 32 15.996 32c8.821 0 15.998-7.178 15.998-16.001S24.817 0 15.995 0zm0 31.028C7.711 31.028.972 24.286.972 15.999S7.712.972 15.996.972c8.285 0 15.026 6.741 15.026 15.027s-6.741 15.029-15.026 15.029z"/></svg>
